X: 18
T: Calliope House (\251Dave Richardson; J-39)
I: Calliope House	J-39	E	jig
M: 6/8
R: jig
K: E
B| "E"eBB gBB|"E" fBB gBB| "A"cff f2e| "B"fge cec|
"E"BcB B2G| B2c e2f|1 "A"gbg gfe| "B"f3 f2:|2 "A"gbg "B"fec| "E"e3 ega|]
|: "E(Bm7)"b3 gbb|"E" fbb gbb| "A"a3 gag| "B"fgf fec|
   "E"BcB B2G| "C#m"B2c e2f|1 "A"gbg gfe| "B"f3 fga:|2 "A"gbg "B"fec| "E"e3 e2:|
["Transition""A"gbg "B"fec| "E"e3 A3|]

